src/assets/images/clouds.svg

<?xml version="1.0" encoding="UTF-8"?>
<svg fill="#ffffff" viewBox="0 0 180 180" xmlns="http://www.w3.org/2000/svg">
<path d="m157.77 82.793c5.365-29.267-17.182-56.074-46.68-56.074-17.046 0-32.299 9.0425-40.705 23.039-11.465-3.7047-23.254-2.1258-32.966 4.5602-9.707 6.6821-15.504 17.262-15.974 28.834-12.971 6.1105-21.45 19.025-21.45 33.215 0 2.431 0.23836 4.862 0.70805 7.227 3.4168 17.202 18.643 29.687 36.206 29.687h105.82c20.549 0 37.266-16.559 37.266-36.914 0-14.524-8.812-27.635-22.226-33.574zm-15.04 59.941h-105.82c-14.414 0-26.367-11.684-26.367-26.367 0-10.986 7.22-20.925 17.966-24.73l3.7442-1.3261-0.2409-3.9649c-0.5663-9.3164 3.6907-18.042 11.388-23.34 8.139-5.6032 18.124-5.9903 27.263-1.8461l4.7503 2.154 2.2061-4.7264c6.0455-12.952 19.183-21.321 33.47-21.321 20.354 0 36.914 16.56 36.914 36.914 0 6.0208-1.27 9.6662-2.675 14.493 3.932 2.0412 4.569 2.4194 5.893 2.873 10.902 3.7343 18.227 13.71 18.227 24.822 0 14.539-11.986 26.367-26.719 26.367z"/>
</svg>

<svg width="180" height="180" viewBox="0 0 180 180" fill="#ffffff" xmlns="http://www.w3.org/2000/svg">
<path d="M157.774 82.793C163.139 53.5261 140.592 26.7188 111.094 26.7188C94.0482 26.7188 78.7946 35.7613 70.3891 49.758C58.924 46.0533 47.1354 47.6322 37.4231 54.3182C27.7161 61.0003 21.9189 71.5802 21.4495 83.1519C8.47898 89.2624 0 102.177 0 116.367C0 118.798 0.238359 121.229 0.708047 123.594C4.12488 140.796 19.3514 153.281 36.9141 153.281H142.734C163.283 153.281 180 136.722 180 116.367C180 101.843 171.188 88.7319 157.774 82.793ZM142.734 142.734H36.9141C22.5 142.734 10.5469 131.05 10.5469 116.367C10.5469 105.381 17.7669 95.4422 28.5131 91.6365L32.2573 90.3104L32.0164 86.3455C31.4501 77.0291 35.7071 68.3037 43.4039 63.0053C51.5429 57.4021 61.5277 57.015 70.6672 61.1592L75.4175 63.3132L77.6236 58.5868C83.6691 45.6349 96.807 37.2656 111.094 37.2656C131.448 37.2656 148.008 53.8253 148.008 74.1797C148.008 80.2005 146.738 83.8459 145.333 88.6725C149.265 90.7137 149.902 91.0919 151.226 91.5455C162.128 95.2798 169.453 105.255 169.453 116.367C169.453 130.906 157.467 142.734 142.734 142.734Z"/>
</svg>
